X:1
T:Rejoice and Shout Aloud
T:Rejoice and Shout Aloud
T:Isaac H. Bullers
T:Thomas Edwin Vassar, 1889
T:Public Domain Courtesy of the Cyber Hymnal™
T:Public Domain Courtesy of the Cyber Hymnal™
C:Isaac H. Bullers
Z:Public Domain
Z:Courtesy of the Cyber Hymnal™
%%score ( 1 2 ) ( 3 4 )
L:1/8
Q:1/4=97
M:4/4
K:F
V:1 treble 
V:2 treble 
V:3 bass 
V:4 bass 
V:1
 [FA]2 | [FA]3 [CG] [CF]>C [B,D]>[DB] | [CA]6 [CF]2 | [EG]3 [CF] [CE]>C [CD]>C | [CF]6 [FA]2 | %5
w: 1.~Not|yet be- neath our cap- tain’s|feet Lie|sin and death, and pain and|woe; Not|
w: 2.~Yet|come it shall, and ev- en|now Faith|views the vic- to- ry as|won; All|
w: 3.~Like|bu- gle blast, rings clear and|strong That|pledge of pro- phet, from a-|far; He|
w: 4.~A-|men, Lord Je- sus, on- ward|sweep, The|lin- gering ag- es wait the|sway; The|
w: 5.~With|yearn- ing heart and lift- ed|eye The|toil- ers watch and ev- er|sing; Thy|
 [FA]3 [CG] [CF]>C [B,D]>[DB] | [CA]6 [Ec]2 | [EG]3 [FA] [F=B]>[FG] [FA]>[FB] | [Ec]6 || %9
w: yet the an- them, clear and|sweet, Of|Heav’n, a- bove, on earth, be-|low.|
w: hearts must yield, all knees must|bend To|God’s be- loved, a- noint- ed|Son.|
w: shall not fail to right the|wrong, The|isles shall speed the con- queror’s|car.|
w: scep- ter stretch o’er land and|deep, Bring|in the gold- en noon- tide|day.|
w: king- dom, glo- ry, power come|nigh, Let|hal- le- lu- jahs sweet- ly|ring.|
"^Refrain" [Bc]2 | [Ac]4- [Ac]>[Bd] [Ac]>[^G=B] | [Ac]4 z2 [Ac]2 | [GB]4- [GB]>[DB] [CA]>[=B,^G] | %13
w: ||||
w: ||||
w: Re-|joice * and shout a-|loud, For|soon * the time will|
w: ||||
w: ||||
 [CA]6 [Ac]2 | [Ac]4- [Ac]>[Bd] [Ac]>[^G=B] | [Ac]4 z2 [Ac]2 | %16
w: |||
w: |||
w: be, When|light * shall break the|cloud, When|
w: |||
w: |||
 [Fd]>[Fd] [Bd]>[Bf] [Be]>[Bc] [Bd]>[Be] | [Af]6 z2 |] %18
w: ||
w: ||
w: Christ shall reign su- preme, E- ter- nal-|ly.|
w: ||
w: ||
V:2
 x2 | x11/2 C/ x2 | x8 | x11/2 C/ x C/ x/ | x8 | x11/2 C/ x2 | x8 | x8 | x6 || x2 | x8 | x8 | x8 | %13
 x8 | x8 | x8 | x8 | x8 |] %18
V:3
 [F,C]2 | [F,C]3 [F,B,] [F,A,]>[F,A,] [B,,B,]>[B,,F,] | F,6 [F,A,]2 | %3
w: ~|~ ~ ~ ~ ~ ~|~ ~|
 [C,B,]3 [C,B,] [C,B,]>[C,B,] [C,B,]>[C,B,] | [F,A,]6 [F,C]2 | %5
w: ~ ~ ~ ~ ~ ~|~ ~|
 [F,C]3 [F,B,] [F,A,]>[F,A,] [B,,B,]>[B,,F,] | F,6 [C,G,]2 | [C,C]3 [C,C] G,>[G,=B,] [G,B,]>G, | %8
w: ~ ~ ~ ~ ~ ~|~ ~|~ ~ ~ ~ ~ ~|
 [C,G,]6 || z2 | z2 [F,C]2 [F,C]2 z2 | z3/2 [F,C]/ [F,C]>[F,C] [F,C]2 z2 | z2 [C,C]2 [C,C]2 z2 | %13
w: ~||Re- joice|and shout a- loud,|For soon|
 z3/2 [F,A,]/ [F,A,]>[F,A,] [F,A,]2 z2 | z2 [F,C]2 [F,C]2 z2 | %15
w: the time will be,|When light|
 z3/2 [F,C]/ [F,C]>[F,C] [F,C]2 [F,C]2 | B,>B, B,>[B,D] C>C [C,C]>[C,C] | [F,C]6 z2 |] %18
w: break the cloud, * *|||
V:4
 x2 | x8 | F,6 x2 | x8 | x8 | x8 | F,6 x2 | x4 G,3/2 x/ G,/ x3/2 | x6 || x2 | x8 | x8 | x8 | x8 | %14
 x8 | x8 | B,>B, B,3/2C>C x5/2 | x8 |] %18

